curriculum/images/exercise-icons/jumbled-house.svg

<svg width="89" height="87" viewBox="0 0 89 87" fill="none" xmlns="http://www.w3.org/2000/svg">
<path d="M84.5 44.0051C84.5008 38.0352 83.1653 32.1409 80.5914 26.7544C78.0176 21.3679 74.2707 16.6259 69.6256 12.876C64.9804 9.12607 59.5548 6.46347 53.7467 5.08344C47.9386 3.70341 41.8952 3.64094 36.0597 4.90061C30.2243 6.16029 24.7448 8.71016 20.0232 12.3632C15.3015 16.0163 11.4574 20.6799 8.77278 26.0121C6.08816 31.3442 4.63109 37.2096 4.50844 43.1782C4.3858 49.1468 5.60068 55.0672 8.064 60.5051H80.936C83.2888 55.3228 84.5041 49.6965 84.5 44.0051Z" fill="#B8ECFF"/>
<path d="M8.06403 60.5051C11.2367 67.509 16.3608 73.4501 22.8229 77.617C29.2849 81.7839 36.811 84 44.5 84C52.189 84 59.7151 81.7839 66.1772 77.617C72.6392 73.4501 77.7633 67.509 80.936 60.5051H8.06403Z" fill="#CCF7AD"/>
<path d="M5.5 60.5051H83.5" stroke="#45413C" stroke-linecap="round" stroke-linejoin="round"/>
<path d="M1 60.5051H3.5" stroke="#45413C" stroke-linecap="round" stroke-linejoin="round"/>
<path d="M85.5 60.5051H88" stroke="#45413C" stroke-linecap="round" stroke-linejoin="round"/>
<path d="M63.528 41.4481H57.138L58.666 28.2481C58.7035 27.9238 58.859 27.6245 59.1027 27.4073C59.3464 27.1902 59.6615 27.0701 59.988 27.0701H60.678C61.0045 27.0701 61.3196 27.1902 61.5633 27.4073C61.807 27.6245 61.9625 27.9238 62 28.2481L63.528 41.4481Z" fill="#FFA694" stroke="#45413C" stroke-linecap="round" stroke-linejoin="round"/>
<path d="M65.525 35.0581C65.5251 34.8832 65.4908 34.71 65.424 34.5484C65.3571 34.3868 65.2591 34.24 65.1355 34.1163C65.0119 33.9926 64.8651 33.8944 64.7036 33.8275C64.542 33.7605 64.3689 33.7261 64.194 33.7261H55.94V41.5811H65.525V35.0581Z" fill="#BF8256" stroke="#45413C" stroke-linecap="round" stroke-linejoin="round"/>
<path d="M39.565 30.5071V69.0051H66.856V44.1531L39.565 30.5071Z" fill="#FFF5E3"/>
<path d="M39.565 30.5071V34.5011L66.856 48.1471V44.1531L39.565 30.5071Z" fill="#F7E5C6"/>
<path d="M39.565 30.5071V69.0051H66.856V44.1531L39.565 30.5071Z" stroke="#45413C" stroke-linecap="round" stroke-linejoin="round"/>
<path d="M60.865 57.6891C60.865 57.3361 60.7248 56.9975 60.4752 56.7479C60.2256 56.4983 59.887 56.3581 59.534 56.3581H46.221C45.868 56.3581 45.5295 56.4983 45.2799 56.7479C45.0302 56.9975 44.89 57.3361 44.89 57.6891V68.9811H60.865V57.6891Z" fill="#00B8F0"/>
<path d="M53.553 56.3581H46.221C45.868 56.3581 45.5295 56.4983 45.2799 56.7479C45.0302 56.9975 44.89 57.3361 44.89 57.6891V65.0211L53.553 56.3581Z" fill="#4ACFFF"/>
<path d="M60.865 57.6891C60.865 57.3361 60.7248 56.9975 60.4752 56.7479C60.2256 56.4983 59.887 56.3581 59.534 56.3581H46.221C45.868 56.3581 45.5295 56.4983 45.2799 56.7479C45.0302 56.9975 44.89 57.3361 44.89 57.6891V68.9811H60.865V57.6891Z" stroke="#45413C" stroke-linecap="round" stroke-linejoin="round"/>
<path d="M70.184 43.663C70.1841 43.8899 70.1261 44.1131 70.0157 44.3113C69.9053 44.5095 69.746 44.6762 69.553 44.7955C69.36 44.9148 69.1398 44.9828 68.9131 44.9931C68.6865 45.0033 68.4609 44.9555 68.258 44.854L37.372 29.411C37.1509 29.3003 36.965 29.1303 36.835 28.92C36.7051 28.7096 36.6361 28.4673 36.636 28.22V26.405C36.6363 26.1782 36.6945 25.9552 36.8051 25.7572C36.9157 25.5591 37.0751 25.3926 37.2681 25.2735C37.4611 25.1543 37.6814 25.0863 37.908 25.0761C38.1346 25.0659 38.36 25.1137 38.563 25.215L69.448 40.656C69.669 40.7668 69.855 40.9368 69.9849 41.1471C70.1149 41.3575 70.1838 41.5998 70.184 41.847V43.663Z" fill="#FF6242" stroke="#45413C" stroke-linecap="round" stroke-linejoin="round"/>
<path d="M44.225 45.042C44.225 45.9247 44.5756 46.7712 45.1997 47.3953C45.8238 48.0194 46.6703 48.3701 47.553 48.3701C48.4356 48.3701 49.2821 48.0194 49.9062 47.3953C50.5303 46.7712 50.881 45.9247 50.881 45.042C50.881 44.1594 50.5303 43.3129 49.9062 42.6888C49.2821 42.0647 48.4356 41.7141 47.553 41.7141C46.6703 41.7141 45.8238 42.0647 45.1997 42.6888C44.5756 43.3129 44.225 44.1594 44.225 45.042Z" fill="#00B8F0"/>
<path d="M52.878 56.3581V68.9811" stroke="#45413C" stroke-linecap="round" stroke-linejoin="round"/>
<path d="M16.933 69.0051H39.565V41.8231L16.933 52.9311V69.0051Z" fill="#FFF5E3"/>
<path d="M16.933 52.9311V56.2591L39.565 45.1511V41.8231L16.933 52.9311Z" fill="#F7E5C6"/>
<path d="M16.933 69.0051H39.565V41.8231L16.933 52.9311V69.0051Z" stroke="#45413C" stroke-linecap="round" stroke-linejoin="round"/>
<path d="M39.565 37.0311L14.341 49.4431C14.1198 49.5534 13.9338 49.7233 13.8038 49.9335C13.6738 50.1437 13.605 50.3859 13.605 50.6331V52.4491C13.6051 52.676 13.6632 52.8991 13.7738 53.0973C13.8843 53.2955 14.0437 53.4621 14.2367 53.5814C14.4297 53.7007 14.65 53.7687 14.8767 53.779C15.1034 53.7892 15.329 53.7414 15.532 53.6401L39.565 41.8231V37.0311Z" fill="#FF6242" stroke="#45413C" stroke-linecap="round" stroke-linejoin="round"/>
<path d="M36.237 57.6891C36.237 57.3361 36.0968 56.9975 35.8472 56.7479C35.5976 56.4983 35.259 56.3581 34.906 56.3581H21.593C21.24 56.3581 20.9015 56.4983 20.6519 56.7479C20.4023 56.9975 20.262 57.3361 20.262 57.6891V69.0051H36.237V57.6891Z" fill="#DAEDF7" stroke="#45413C" stroke-linecap="round" stroke-linejoin="round"/>
<path d="M20.262 59.6861H36.237" stroke="#45413C" stroke-linecap="round" stroke-linejoin="round"/>
<path d="M20.262 63.0141H36.237" stroke="#45413C" stroke-linecap="round" stroke-linejoin="round"/>
<path d="M20.262 66.342H36.237" stroke="#45413C" stroke-linecap="round" stroke-linejoin="round"/>
<path d="M50.052 42.8661C49.7545 42.5196 49.3887 42.2383 48.9774 42.0398C48.5661 41.8412 48.1183 41.7298 47.6619 41.7125C47.2056 41.6951 46.7506 41.7722 46.3254 41.9389C45.9003 42.1057 45.5141 42.3584 45.1912 42.6813C44.8683 43.0042 44.6156 43.3904 44.4488 43.8155C44.2821 44.2407 44.205 44.6957 44.2224 45.152C44.2397 45.6084 44.3511 46.0562 44.5496 46.4675C44.7482 46.8788 45.0295 47.2446 45.376 47.5421L50.052 42.8661Z" fill="#4ACFFF"/>
<path d="M44.225 45.042C44.225 45.9247 44.5756 46.7712 45.1997 47.3953C45.8238 48.0194 46.6703 48.3701 47.553 48.3701C48.4356 48.3701 49.2821 48.0194 49.9062 47.3953C50.5303 46.7712 50.881 45.9247 50.881 45.042C50.881 44.1594 50.5303 43.3129 49.9062 42.6888C49.2821 42.0647 48.4356 41.7141 47.553 41.7141C46.6703 41.7141 45.8238 42.0647 45.1997 42.6888C44.5756 43.3129 44.225 44.1594 44.225 45.042Z" stroke="#45413C" stroke-linecap="round" stroke-linejoin="round"/>
<path d="M75.895 61.3241V57.7061" stroke="#45413C" stroke-linecap="round" stroke-linejoin="round"/>
<path d="M79.5001 54.6281C79.4843 55.5739 79.0975 56.4757 78.4231 57.139C77.7486 57.8023 76.8405 58.174 75.8946 58.174C74.9486 58.174 74.0405 57.8023 73.3661 57.139C72.6916 56.4757 72.3048 55.5739 72.2891 54.6281C72.2891 53.0991 74.4151 45.7181 75.4021 42.3741C75.4331 42.2675 75.4979 42.1739 75.5867 42.1073C75.6755 42.0406 75.7836 42.0046 75.8946 42.0046C76.0056 42.0046 76.1136 42.0406 76.2024 42.1073C76.2912 42.1739 76.356 42.2675 76.3871 42.3741C77.3741 45.7181 79.5001 53.0991 79.5001 54.6281Z" fill="#6DD627"/>
<path d="M79.5001 54.6281C79.4843 55.5739 79.0975 56.4757 78.4231 57.139C77.7486 57.8023 76.8405 58.174 75.8946 58.174C74.9486 58.174 74.0405 57.8023 73.3661 57.139C72.6916 56.4757 72.3048 55.5739 72.2891 54.6281C72.2891 53.0991 74.4151 45.7181 75.4021 42.3741C75.4331 42.2675 75.4979 42.1739 75.5867 42.1073C75.6755 42.0406 75.7836 42.0046 75.8946 42.0046C76.0056 42.0046 76.1136 42.0406 76.2024 42.1073C76.2912 42.1739 76.356 42.2675 76.3871 42.3741C77.3741 45.7181 79.5001 53.0991 79.5001 54.6281Z" fill="#6DD627"/>
<path d="M78 48.0051C77.424 45.9051 76.807 43.7801 76.392 42.3721C76.3606 42.2656 76.2956 42.1722 76.2067 42.1058C76.1179 42.0394 76.0099 42.0035 75.899 42.0035C75.788 42.0035 75.6801 42.0394 75.5912 42.1058C75.5023 42.1722 75.4374 42.2656 75.406 42.3721C74.986 43.7831 74.369 45.9051 73.793 48.0051C74.4437 47.6705 75.1648 47.4959 75.8965 47.4959C76.6281 47.4959 77.3493 47.6705 78 48.0051Z" fill="#9CEB60"/>
<path d="M79.5001 54.6281C79.4843 55.5739 79.0975 56.4757 78.4231 57.139C77.7486 57.8023 76.8405 58.174 75.8946 58.174C74.9486 58.174 74.0405 57.8023 73.3661 57.139C72.6916 56.4757 72.3048 55.5739 72.2891 54.6281C72.2891 53.0991 74.4151 45.7181 75.4021 42.3741C75.4331 42.2675 75.4979 42.1739 75.5867 42.1073C75.6755 42.0406 75.7836 42.0046 75.8946 42.0046C76.0056 42.0046 76.1136 42.0406 76.2024 42.1073C76.2912 42.1739 76.356 42.2675 76.3871 42.3741C77.3741 45.7181 79.5001 53.0991 79.5001 54.6281Z" stroke="#45413C" stroke-linecap="round" stroke-linejoin="round"/>
<path d="M22.475 20.615C22.0812 20.6169 21.6912 20.6922 21.325 20.837C21.1348 19.5836 20.5015 18.4398 19.5401 17.6133C18.5787 16.7868 17.3528 16.3323 16.085 16.3323C14.8172 16.3323 13.5913 16.7868 12.6299 17.6133C11.6685 18.4398 11.0352 19.5836 10.845 20.837C10.4074 20.6673 9.93784 20.5962 9.46966 20.6287C9.00148 20.6612 8.54622 20.7966 8.13632 21.0251C7.72642 21.2537 7.37196 21.5698 7.09818 21.951C6.82441 22.3322 6.63805 22.769 6.5524 23.2305C6.46674 23.6919 6.48388 24.1665 6.60261 24.6206C6.72134 25.0746 6.93873 25.4969 7.23929 25.8573C7.53986 26.2178 7.9162 26.5075 8.34153 26.7059C8.76685 26.9042 9.23068 27.0064 9.69999 27.005H22.48C23.2965 26.9593 24.0644 26.6028 24.6263 26.0087C25.1881 25.4145 25.5012 24.6278 25.5012 23.81C25.5012 22.9923 25.1881 22.2056 24.6263 21.6114C24.0644 21.0173 23.2965 20.6607 22.48 20.615H22.475Z" fill="white" stroke="#45413C" stroke-linecap="round" stroke-linejoin="round"/>
<path d="M22.475 20.615C22.0812 20.6169 21.6912 20.6922 21.325 20.837C21.1348 19.5836 20.5015 18.4398 19.5401 17.6133C18.5787 16.7868 17.3528 16.3323 16.085 16.3323C14.8172 16.3323 13.5913 16.7868 12.6299 17.6133C11.6685 18.4398 11.0352 19.5836 10.845 20.837C10.4074 20.6673 9.93784 20.5962 9.46966 20.6287C9.00148 20.6612 8.54622 20.7966 8.13632 21.0251C7.72642 21.2537 7.37196 21.5698 7.09818 21.951C6.82441 22.3322 6.63805 22.769 6.5524 23.2305C6.46674 23.6919 6.48388 24.1665 6.60261 24.6206C6.72134 25.0746 6.93873 25.4969 7.23929 25.8573C7.53986 26.2178 7.9162 26.5075 8.34153 26.7059C8.76685 26.9042 9.23068 27.0064 9.69999 27.005H22.48C23.2965 26.9593 24.0644 26.6028 24.6263 26.0087C25.1881 25.4145 25.5012 24.6278 25.5012 23.81C25.5012 22.9923 25.1881 22.2056 24.6263 21.6114C24.0644 21.0173 23.2965 20.6607 22.48 20.615H22.475Z" fill="white" stroke="#45413C" stroke-linecap="round" stroke-linejoin="round"/>
</svg>

<svg xmlns="http://www.w3.org/2000/svg" width="89" height="87" fill="none" viewBox="0 0 89 87"><path fill="#b8ecff" d="M84.5 44.005a39.998 39.998 0 0 0-64.477-31.642A40 40 0 0 0 8.064 60.505h72.872a39.84 39.84 0 0 0 3.564-16.5"/><path fill="#ccf7ad" d="M8.064 60.505a40 40 0 0 0 72.872 0z"/><path stroke="#45413c" stroke-linecap="round" stroke-linejoin="round" d="M5.5 60.505h78M1 60.505h2.5M85.5 60.505H88"/><path fill="#ffa694" stroke="#45413c" stroke-linecap="round" stroke-linejoin="round" d="M63.528 41.448h-6.39l1.528-13.2a1.33 1.33 0 0 1 1.322-1.178h.69A1.33 1.33 0 0 1 62 28.248z"/><path fill="#bf8256" stroke="#45413c" stroke-linecap="round" stroke-linejoin="round" d="M65.525 35.058a1.33 1.33 0 0 0-1.331-1.332H55.94v7.855h9.585z"/><path fill="#fff5e3" d="M39.565 30.507v38.498h27.291V44.153z"/><path fill="#f7e5c6" d="M39.565 30.507v3.994l27.291 13.646v-3.994z"/><path stroke="#45413c" stroke-linecap="round" stroke-linejoin="round" d="M39.565 30.507v38.498h27.291V44.153z"/><path fill="#00b8f0" d="M60.865 57.69a1.33 1.33 0 0 0-1.331-1.332H46.221a1.33 1.33 0 0 0-1.331 1.331v11.292h15.975z"/><path fill="#4acfff" d="M53.553 56.358h-7.332a1.33 1.33 0 0 0-1.331 1.331v7.332z"/><path stroke="#45413c" stroke-linecap="round" stroke-linejoin="round" d="M60.865 57.69a1.33 1.33 0 0 0-1.331-1.332H46.221a1.33 1.33 0 0 0-1.331 1.331v11.292h15.975z"/><path fill="#ff6242" stroke="#45413c" stroke-linecap="round" stroke-linejoin="round" d="M70.184 43.663a1.33 1.33 0 0 1-1.926 1.191L37.372 29.411a1.33 1.33 0 0 1-.736-1.191v-1.815a1.332 1.332 0 0 1 1.927-1.19l30.885 15.441a1.33 1.33 0 0 1 .736 1.191z"/><path fill="#00b8f0" d="M44.225 45.042a3.328 3.328 0 1 0 6.656 0 3.328 3.328 0 0 0-6.656 0"/><path stroke="#45413c" stroke-linecap="round" stroke-linejoin="round" d="M52.878 56.358v12.623"/><path fill="#fff5e3" d="M16.933 69.005h22.632V41.823L16.933 52.931z"/><path fill="#f7e5c6" d="M16.933 52.931v3.328l22.632-11.108v-3.328z"/><path stroke="#45413c" stroke-linecap="round" stroke-linejoin="round" d="M16.933 69.005h22.632V41.823L16.933 52.931z"/><path fill="#ff6242" stroke="#45413c" stroke-linecap="round" stroke-linejoin="round" d="M39.565 37.031 14.341 49.443a1.33 1.33 0 0 0-.736 1.19v1.816a1.33 1.33 0 0 0 1.927 1.191l24.033-11.817z"/><path fill="#daedf7" stroke="#45413c" stroke-linecap="round" stroke-linejoin="round" d="M36.237 57.69a1.33 1.33 0 0 0-1.331-1.332H21.593a1.33 1.33 0 0 0-1.331 1.331v11.316h15.975z"/><path stroke="#45413c" stroke-linecap="round" stroke-linejoin="round" d="M20.262 59.686h15.975M20.262 63.014h15.975M20.262 66.342h15.975"/><path fill="#4acfff" d="M50.052 42.866a3.316 3.316 0 1 0-4.676 4.676z"/><path stroke="#45413c" stroke-linecap="round" stroke-linejoin="round" d="M44.225 45.042a3.328 3.328 0 1 0 6.656 0 3.328 3.328 0 0 0-6.656 0M75.895 61.324v-3.618"/><path fill="#6dd627" d="M79.5 54.628a3.606 3.606 0 0 1-7.21 0c0-1.529 2.125-8.91 3.112-12.254a.512.512 0 0 1 .985 0C77.374 45.718 79.5 53.1 79.5 54.628"/><path fill="#6dd627" d="M79.5 54.628a3.606 3.606 0 0 1-7.21 0c0-1.529 2.125-8.91 3.112-12.254a.512.512 0 0 1 .985 0C77.374 45.718 79.5 53.1 79.5 54.628"/><path fill="#9ceb60" d="M78 48.005c-.576-2.1-1.193-4.225-1.608-5.633a.514.514 0 0 0-.986 0 286 286 0 0 0-1.613 5.633 4.6 4.6 0 0 1 4.207 0"/><path stroke="#45413c" stroke-linecap="round" stroke-linejoin="round" d="M79.5 54.628a3.606 3.606 0 0 1-7.21 0c0-1.529 2.125-8.91 3.112-12.254a.512.512 0 0 1 .985 0C77.374 45.718 79.5 53.1 79.5 54.628"/><path fill="#fff" stroke="#45413c" stroke-linecap="round" stroke-linejoin="round" d="M22.475 20.615a3.2 3.2 0 0 0-1.15.222 5.3 5.3 0 0 0-10.48 0A3.192 3.192 0 1 0 9.7 27.005h12.78a3.2 3.2 0 0 0 0-6.39z"/><path fill="#fff" stroke="#45413c" stroke-linecap="round" stroke-linejoin="round" d="M22.475 20.615a3.2 3.2 0 0 0-1.15.222 5.3 5.3 0 0 0-10.48 0A3.192 3.192 0 1 0 9.7 27.005h12.78a3.2 3.2 0 0 0 0-6.39z"/></svg>
